X: 42455
T: Westmorland, The
R: waltz
M: 3/4
K: Gmajor
d2 c2|:B3 A G2|F3 E D2|E3 F G2|F4 G2|A3 B c2|B3 c d2|
e3 f g2|f3 e d2|(g6|g3) d B2|c4 B2|A3 B cd|
B2 G2 B2|A2 F2 D2|1 G3 A GF|G2 d2 c2:|2 (G6|G2) g2 a2||
|:b3 a g2|a3 g f2|g3 f e2|d3 e f2|g3 f e2|
d2 e2 B2|A6|d4 c2|B3 A B2|G2 g2 B2|
c4 B2|A2 B2 cd|B2 G2 B2|A2 F2 D2|G4GF|1 G2 g2 a2:|2 G2||

